resources/devices/metronome_1.svg

<?xml version="1.0" encoding="UTF-8" standalone="no"?>
<!-- Uploaded to: SVG Repo, www.svgrepo.com, Generator: SVG Repo Mixer Tools -->

<svg
   fill="#000000"
   height="50"
   width="35"
   version="1.1"
   id="Capa_1"
   viewBox="0 0 35 50"
   xml:space="preserve"
   sodipodi:docname="metronome.svg"
   inkscape:version="1.3.2 (091e20e, 2023-11-25)"
   xmlns:inkscape="http://www.inkscape.org/namespaces/inkscape"
   xmlns:sodipodi="http://sodipodi.sourceforge.net/DTD/sodipodi-0.dtd"
   xmlns="http://www.w3.org/2000/svg"
   xmlns:svg="http://www.w3.org/2000/svg"><defs
   id="defs1" /><sodipodi:namedview
   id="namedview1"
   pagecolor="#ffffff"
   bordercolor="#000000"
   borderopacity="0.25"
   inkscape:showpageshadow="2"
   inkscape:pageopacity="0.0"
   inkscape:pagecheckerboard="0"
   inkscape:deskcolor="#d1d1d1"
   inkscape:current-layer="Capa_1" />
<path
   d="M 32.518689,45.301275 24.343131,6.0755262 C 23.82823,3.6056587 21.763327,2.5 19.945382,2.5 18.127436,2.5 16.062434,3.6056587 15.547633,6.0755262 L 12.008185,23.057177 10.159758,20.612195 11.032551,19.954177 8.6821145,16.093816 7.4517282,17.021378 3.1198406,11.27591 2.481311,11.757231 6.8133984,17.502898 5.583012,18.43056 8.6476345,21.752334 9.5214277,21.093616 11.791611,24.096474 7.3719744,45.301275 H 9.4014973 V 47.5 H 12.299816 V 45.301275 H 27.590947 V 47.5 h 2.898319 V 45.301275 Z M 6.7695238,18.537298 8.4585442,17.263937 9.9732657,19.751694 8.7444784,20.678257 Z M 28.74238,31.101511 H 27.953337 L 22.726969,6.0217574 h 0.782146 c 0.01849,0.070759 0.03578,0.1429171 0.05117,0.2169741 z m -9.832198,-5.988527 h 1.079374 v -0.799536 h -1.079374 v -1.342121 h 1.079374 V 22.17179 h -1.079374 v -1.342121 h 1.079374 v -0.799536 h -1.079374 v -1.342122 h 1.079374 v -0.799536 h -1.079374 v -1.342022 h 1.079374 v -0.799536 h -1.079374 v -1.342122 h 1.079374 v -0.799536 h -1.079374 v -1.342022 h 1.079374 v -0.799536 h -1.079374 v -1.342022 h 1.079374 V 9.3221432 H 18.910182 V 8.1228388 h 2.098783 V 26.512173 h -2.098783 z m 0,2.198725 h 2.098783 v 3.789802 H 18.910182 Z M 18.110646,7.3233025 V 31.101511 h -0.02099 L 13.906984,25.56882 17.981121,6.0218573 h 3.929121 l 5.226269,25.0796537 h -5.32801 V 7.3233025 Z M 17.087439,31.101511 H 12.753853 L 13.69041,26.608017 Z M 19.945382,3.2995363 c 1.141638,0 2.549421,0.5238961 3.262508,1.9226848 h -6.524916 c 0.712887,-1.3987887 2.12067,-1.9226848 3.262408,-1.9226848 z m -3.615003,2.9391952 c 0.01539,-0.074057 0.03268,-0.1461152 0.05117,-0.2169741 h 0.782746 l -3.89754,18.7001536 -0.618241,-0.817825 z m -3.280298,19.5223775 -1.113054,5.340402 h -0.788743 l 1.283556,-6.158228 z m -2.0684,6.139938 H 28.908983 L 31.53526,44.501739 H 8.355404 Z m 0.518599,14.799417 h -1.299246 v -1.399189 h 1.299246 z m 18.18945,0 h -1.299246 v -1.399189 h 1.299246 z"
   id="path1"
   inkscape:label="metronome"
   style="stroke-width:0.099942" />
</svg>

<svg xmlns="http://www.w3.org/2000/svg" xml:space="preserve" width="35" height="50">
    <path d="M32.519 45.301 24.343 6.076c-.515-2.47-2.58-3.576-4.398-3.576s-3.883 1.106-4.397 3.576l-3.54 16.981-1.848-2.445.873-.658-2.35-3.86-1.231.927-4.332-5.745-.639.481 4.332 5.746-1.23.928 3.065 3.321.873-.658 2.27 3.002-4.419 21.205h2.03V47.5H12.3v-2.199h15.29V47.5h2.9v-2.199ZM6.769 18.537l1.69-1.273 1.514 2.488-1.229.926Zm21.973 12.565h-.789l-5.226-25.08h.782q.029.106.051.217zm-9.832-5.989h1.08v-.8h-1.08v-1.342h1.08v-.8h-1.08V20.83h1.08v-.8h-1.08v-1.342h1.08v-.8h-1.08v-1.342h1.08v-.8h-1.08v-1.341h1.08v-.8h-1.08v-1.342h1.08v-.8h-1.08v-1.341h1.08v-.8h-1.08v-1.2h2.099v18.39H18.91zm0 2.199h2.099v3.79H18.91Zm-.8-19.989v23.779h-.02l-4.183-5.533 4.074-19.547h3.93l5.226 25.08h-5.328V7.323Zm-1.023 23.779h-4.333l.936-4.494ZM19.945 3.3c1.142 0 2.55.523 3.263 1.922h-6.525c.713-1.399 2.12-1.922 3.262-1.922M16.33 6.239q.024-.11.052-.217h.782l-3.897 18.7-.618-.818zM13.05 25.76l-1.113 5.34h-.789l1.284-6.158zm-2.068 6.14h17.927l2.626 12.6H8.355Zm.518 14.8h-1.299v-1.4h1.3zm18.19 0h-1.3v-1.4h1.3z" style="stroke-width:.099942"/>
</svg>
